public/syGroup.svg

<svg width="86" height="86" viewBox="0 0 86 86" fill="none" xmlns="http://www.w3.org/2000/svg">
<g clip-path="url(#clip0_728_415)">
<rect x="4" y="4" width="77.7666" height="77.7666" fill="#003171"/>
<path d="M7.88275 7.81261C7.88275 10.1375 8.50613 12.211 9.7529 14.0332C11.0689 15.7926 12.662 17.332 14.5322 18.6516C16.4023 19.9083 18.9651 21.4791 22.2205 23.3641C25.753 25.3748 28.5236 27.1028 30.5323 28.548C32.6102 29.9932 34.3765 31.784 35.8311 33.9203C37.2856 35.9939 38.0129 38.4444 38.0129 41.272C38.0129 44.4765 37.0778 47.3355 35.2077 49.8489C33.4068 52.3623 30.8094 54.3415 27.4154 55.7867C24.0907 57.1691 20.2811 57.8603 15.9867 57.8603C13.0776 57.8603 10.0646 57.5147 6.94768 56.8235C3.90003 56.1323 1.57966 55.2841 -0.0134277 54.2787C-0.63681 53.9017 -0.983134 53.3048 -1.0524 52.4879L-1.67578 38.2559V38.1617C-1.67578 37.9103 -1.50262 37.7847 -1.1563 37.7847C-0.809972 37.7218 -0.602178 37.8161 -0.532913 38.0674C1.75282 43.2198 4.35025 47.4612 7.25937 50.7914C10.2377 54.1216 13.978 55.7867 18.4802 55.7867C21.5279 55.7867 24.0561 55.0641 26.0647 53.619C28.0734 52.1109 29.0778 49.629 29.0778 46.1731C29.0778 43.4084 28.3851 40.9892 26.9998 38.9157C25.6838 36.8421 24.0214 35.1142 22.0128 33.7318C20.0733 32.3495 17.4066 30.653 14.0127 28.6422C10.688 26.6944 8.09054 25.0607 6.2204 23.7412C4.35025 22.3588 2.75716 20.6937 1.44113 18.7458C0.125102 16.7351 -0.532913 14.4102 -0.532913 11.7712C-0.532913 8.50379 0.471425 5.73907 2.4801 3.47703C4.48878 1.21499 7.0862 -0.450124 10.2724 -1.51831C13.5278 -2.64933 16.9218 -3.21484 20.4543 -3.21484C22.74 -3.21484 25.0604 -2.99492 27.4154 -2.55508C29.7704 -2.17807 31.7791 -1.6754 33.4414 -1.04705C34.4804 -0.670048 34.9999 -0.0731201 34.9999 0.743729L35.2077 13.4677C35.2077 13.7191 35.0345 13.8761 34.6882 13.939C34.4111 14.0018 34.2033 13.939 34.0648 13.7505C32.6795 9.91757 30.8094 6.46167 28.4544 3.38278C26.1686 0.241052 22.7054 -1.32981 18.0647 -1.32981C14.9478 -1.32981 12.4542 -0.481545 10.5841 1.21499C8.78319 2.84869 7.88275 5.04789 7.88275 7.81261Z" fill="#FEF5E3"/>
<path d="M79.8466 9.83911C81.3487 7.26289 82.0997 5.03227 82.0997 3.14724C82.0997 0.382516 80.4474 -0.999842 77.1428 -0.999842C77.0226 -0.999842 76.9625 -1.18835 76.9625 -1.56535C76.9625 -1.94236 77.0226 -2.13086 77.1428 -2.13086L81.8294 -2.03661C84.3529 -1.91094 86.6662 -1.84811 88.7692 -1.84811C89.7906 -1.84811 91.0223 -1.91094 92.4644 -2.03661L95.7991 -2.13086C95.9193 -2.13086 95.9793 -1.94236 95.9793 -1.56535C95.9793 -1.18835 95.9193 -0.999842 95.7991 -0.999842C93.8163 -0.999842 91.5631 0.0997605 89.0395 2.29897C86.516 4.43534 84.2628 7.20006 82.28 10.5931L69.7523 31.7998L67.9498 30.2917L79.8466 9.83911ZM49.6539 7.85982C47.6111 4.52959 45.8386 2.23613 44.3364 0.979445C42.8944 -0.340081 41.4824 -0.999842 40.1005 -0.999842C39.9202 -0.999842 39.8301 -1.18835 39.8301 -1.56535C39.8301 -1.94236 39.9202 -2.13086 40.1005 -2.13086L43.0747 -2.03661C44.3965 -1.91094 45.3579 -1.84811 45.9587 -1.84811C47.9415 -1.84811 50.7956 -1.91094 54.5208 -2.03661L60.1988 -2.13086C60.319 -2.13086 60.3791 -1.94236 60.3791 -1.56535C60.3791 -1.18835 60.319 -0.999842 60.1988 -0.999842C57.6753 -0.999842 56.4135 -0.151576 56.4135 1.54496C56.4135 2.29897 56.804 3.33574 57.5851 4.65526L71.3746 26.8044L64.1644 31.0458L49.6539 7.85982ZM72.0055 26.7102V49.1421C72.0055 51.09 72.1557 52.5037 72.4561 53.3834C72.7566 54.2631 73.3574 54.86 74.2587 55.1742C75.22 55.4884 76.7222 55.6455 78.765 55.6455C78.9453 55.6455 79.0354 55.834 79.0354 56.211C79.0354 56.588 78.9453 56.7765 78.765 56.7765C76.8423 56.7765 75.3402 56.7451 74.2587 56.6822L67.6794 56.588L61.1902 56.6822C59.9885 56.7451 58.3963 56.7765 56.4135 56.7765C56.2933 56.7765 56.2332 56.588 56.2332 56.211C56.2332 55.834 56.2933 55.6455 56.4135 55.6455C58.4564 55.6455 59.9585 55.4884 60.9198 55.1742C61.8812 54.86 62.5421 54.2631 62.9027 53.3834C63.2632 52.4409 63.4434 51.0271 63.4434 49.1421V27.5584L72.0055 26.7102Z" fill="#FEF5E3"/>
<path d="M24.1318 68.5593C24.0737 68.3769 23.9956 68.2137 23.8974 68.0694C23.8012 67.9232 23.686 67.7989 23.5518 67.6968C23.4176 67.5926 23.2643 67.5134 23.092 67.4594C22.9217 67.4053 22.7344 67.3782 22.53 67.3782C22.1834 67.3782 21.8709 67.4674 21.5924 67.6457C21.3139 67.824 21.0936 68.0854 20.9313 68.43C20.771 68.7726 20.6909 69.1923 20.6909 69.6892C20.6909 70.1881 20.772 70.6098 20.9343 70.9544C21.0966 71.299 21.3189 71.5604 21.6014 71.7387C21.8839 71.9171 22.2055 72.0062 22.5661 72.0062C22.9007 72.0062 23.1922 71.9381 23.4406 71.8019C23.691 71.6656 23.8844 71.4733 24.0206 71.2249C24.1589 70.9744 24.228 70.6799 24.228 70.3413L24.4684 70.3864H22.7073V69.6201H25.1265V70.3203C25.1265 70.8372 25.0163 71.286 24.796 71.6666C24.5776 72.0453 24.2751 72.3378 23.8884 72.5441C23.5037 72.7505 23.063 72.8537 22.5661 72.8537C22.0091 72.8537 21.5203 72.7255 21.0996 72.469C20.6808 72.2126 20.3543 71.8489 20.1199 71.3781C19.8855 70.9053 19.7683 70.3443 19.7683 69.6952C19.7683 69.2044 19.8364 68.7636 19.9726 68.3729C20.1088 67.9823 20.3002 67.6507 20.5466 67.3782C20.795 67.1037 21.0865 66.8944 21.4211 66.7501C21.7577 66.6039 22.1253 66.5307 22.524 66.5307C22.8566 66.5307 23.1661 66.5798 23.4526 66.678C23.7411 66.7762 23.9976 66.9154 24.222 67.0957C24.4484 67.276 24.6357 67.4904 24.7839 67.7388C24.9322 67.9853 25.0324 68.2587 25.0845 68.5593H24.1318ZM30.9598 72.7695V66.6149H33.1536C33.6304 66.6149 34.0261 66.697 34.3406 66.8613C34.6572 67.0256 34.8936 67.253 35.0498 67.5435C35.2061 67.832 35.2842 68.1656 35.2842 68.5442C35.2842 68.9209 35.2051 69.2525 35.0468 69.5389C34.8906 69.8234 34.6541 70.0448 34.3376 70.2031C34.0231 70.3614 33.6274 70.4405 33.1505 70.4405H31.4887V69.6411H33.0664C33.3669 69.6411 33.6113 69.598 33.7997 69.5119C33.99 69.4257 34.1292 69.3005 34.2174 69.1362C34.3055 68.972 34.3496 68.7746 34.3496 68.5442C34.3496 68.3118 34.3045 68.1105 34.2144 67.9402C34.1262 67.7699 33.987 67.6397 33.7967 67.5495C33.6083 67.4573 33.3609 67.4113 33.0544 67.4113H31.8884V72.7695H30.9598ZM33.998 69.9927L35.5186 72.7695H34.4608L32.9702 69.9927H33.998ZM46.4149 69.6922C46.4149 70.3493 46.2947 70.9143 46.0543 71.3871C45.8138 71.858 45.4843 72.2206 45.0655 72.475C44.6488 72.7275 44.175 72.8537 43.6441 72.8537C43.1112 72.8537 42.6353 72.7275 42.2166 72.475C41.7999 72.2206 41.4713 71.857 41.2309 71.3841C40.9905 70.9113 40.8703 70.3473 40.8703 69.6922C40.8703 69.0351 40.9905 68.4711 41.2309 68.0003C41.4713 67.5275 41.7999 67.1648 42.2166 66.9124C42.6353 66.658 43.1112 66.5307 43.6441 66.5307C44.175 66.5307 44.6488 66.658 45.0655 66.9124C45.4843 67.1648 45.8138 67.5275 46.0543 68.0003C46.2947 68.4711 46.4149 69.0351 46.4149 69.6922ZM45.4953 69.6922C45.4953 69.1913 45.4141 68.7696 45.2519 68.427C45.0916 68.0824 44.8712 67.822 44.5907 67.6457C44.3122 67.4674 43.9967 67.3782 43.6441 67.3782C43.2895 67.3782 42.9729 67.4674 42.6944 67.6457C42.416 67.822 42.1956 68.0824 42.0333 68.427C41.873 68.7696 41.7929 69.1913 41.7929 69.6922C41.7929 70.1931 41.873 70.6158 42.0333 70.9604C42.1956 71.303 42.416 71.5634 42.6944 71.7418C42.9729 71.9181 43.2895 72.0062 43.6441 72.0062C43.9967 72.0062 44.3122 71.9181 44.5907 71.7418C44.8712 71.5634 45.0916 71.303 45.2519 70.9604C45.4141 70.6158 45.4953 70.1931 45.4953 69.6922ZM56.1849 66.6149H57.1165V70.6629C57.1165 71.0936 57.0154 71.4753 56.813 71.8079C56.6107 72.1384 56.3262 72.3989 55.9595 72.5892C55.5929 72.7775 55.1632 72.8717 54.6703 72.8717C54.1795 72.8717 53.7507 72.7775 53.3841 72.5892C53.0174 72.3989 52.733 72.1384 52.5306 71.8079C52.3283 71.4753 52.2271 71.0936 52.2271 70.6629V66.6149H53.1557V70.5878C53.1557 70.8662 53.2168 71.1137 53.339 71.33C53.4632 71.5464 53.6385 71.7167 53.8649 71.8409C54.0913 71.9631 54.3598 72.0242 54.6703 72.0242C54.9828 72.0242 55.2523 71.9631 55.4787 71.8409C55.7071 71.7167 55.8814 71.5464 56.0016 71.33C56.1238 71.1137 56.1849 70.8662 56.1849 70.5878V66.6149ZM63.1211 72.7695V66.6149H65.3149C65.7937 66.6149 66.1904 66.702 66.5049 66.8763C66.8195 67.0506 67.0549 67.2891 67.2111 67.5916C67.3674 67.8921 67.4455 68.2307 67.4455 68.6073C67.4455 68.986 67.3664 69.3266 67.2081 69.6291C67.0519 69.9296 66.8154 70.168 66.4989 70.3443C66.1844 70.5186 65.7887 70.6058 65.3118 70.6058H63.8032V69.8184H65.2277C65.5302 69.8184 65.7757 69.7663 65.964 69.6622C66.1523 69.556 66.2905 69.4117 66.3787 69.2294C66.4668 69.0471 66.5109 68.8397 66.5109 68.6073C66.5109 68.3749 66.4668 68.1686 66.3787 67.9883C66.2905 67.808 66.1513 67.6667 65.961 67.5645C65.7726 67.4624 65.5242 67.4113 65.2157 67.4113H64.0497V72.7695H63.1211Z" fill="#FEF5E3"/>
</g>
<rect x="2" y="2" width="81.7666" height="81.7666" stroke="white" stroke-width="4"/>
<defs>
<clipPath id="clip0_728_415">
<rect x="4" y="4" width="77.7666" height="77.7666" fill="white"/>
</clipPath>
</defs>
</svg>

<svg xmlns="http://www.w3.org/2000/svg" width="86" height="86" fill="none" viewBox="0 0 86 86"><g clip-path="url(#a)"><path fill="#003171" d="M4 4h77.767v77.767H4z"/><path fill="#fef5e3" d="M7.883 7.813q0 3.486 1.87 6.22a21.1 21.1 0 0 0 4.78 4.619q2.805 1.884 7.688 4.712 5.299 3.016 8.311 5.184a20.6 20.6 0 0 1 5.3 5.372q2.18 3.11 2.18 7.352 0 4.807-2.804 8.577-2.702 3.77-7.793 5.938-4.987 2.073-11.428 2.073-4.364 0-9.04-1.036-4.57-1.038-6.96-2.545-.935-.566-1.04-1.791l-.623-14.232v-.094q0-.378.52-.377.52-.094.623.282 3.429 7.73 7.792 12.724 4.468 4.996 11.221 4.996 4.572 0 7.585-2.168 3.012-2.262 3.013-7.446 0-4.148-2.078-7.257a17.8 17.8 0 0 0-4.987-5.184q-2.91-2.074-8-5.09-4.987-2.922-7.793-4.9a20.3 20.3 0 0 1-4.779-4.996Q-.533 15.73-.533 11.77q0-4.9 3.013-8.294Q5.493.084 10.272-1.518q4.884-1.697 10.182-1.697 3.429 0 6.961.66 3.533.566 6.026 1.508 1.56.566 1.559 1.79l.208 12.725q0 .377-.52.471-.416.094-.623-.188Q31.986 8 28.455 3.383q-3.43-4.713-10.39-4.713-4.675 0-7.48 2.545-2.703 2.45-2.702 6.598M79.847 9.84Q82.1 5.974 82.1 3.146 82.1-.999 77.143-1q-.18 0-.18-.565 0-.566.18-.566l4.686.094q3.786.189 6.94.189 1.532 0 3.695-.189L95.8-2.13q.18 0 .18.566 0 .565-.18.565-2.974 0-6.76 3.299-3.785 3.204-6.759 8.294L69.752 31.8l-1.802-1.508zM49.654 7.86Q46.59 2.865 44.336.98 42.173-1 40.1-1q-.27 0-.27-.565 0-.566.27-.566l2.975.094q1.983.189 2.884.189 2.974 0 8.562-.189l5.678-.094q.18 0 .18.566 0 .565-.18.565-3.786 0-3.785 2.545 0 1.13 1.171 3.11l13.79 22.15-7.21 4.24zm22.351 18.85v22.432q0 2.922.451 4.241.45 1.32 1.803 1.791 1.441.471 4.506.471.27 0 .27.566t-.27.566q-2.884 0-4.506-.095l-6.58-.094-6.489.094q-1.802.094-4.776.094-.18 0-.18-.565 0-.566.18-.566 3.063 0 4.506-.47 1.441-.472 1.983-1.792.54-1.413.54-4.24V27.557zM24.132 68.56a2 2 0 0 0-.235-.49 1.5 1.5 0 0 0-.805-.61 1.9 1.9 0 0 0-.562-.082q-.52 0-.938.268-.417.267-.66.784-.241.514-.241 1.26 0 .748.243 1.264.244.517.667.785.425.267.965.267.502 0 .875-.204.375-.204.58-.577a1.8 1.8 0 0 0 .207-.884l.24.045h-1.76v-.766h2.419v.7q0 .775-.331 1.347a2.25 2.25 0 0 1-.908.877q-.576.31-1.322.31-.836 0-1.466-.385a2.6 2.6 0 0 1-.98-1.09q-.352-.71-.352-1.684 0-.735.205-1.322.204-.585.574-.995.372-.411.874-.628.505-.22 1.103-.22.499 0 .929.148.433.147.769.418a2.36 2.36 0 0 1 .862 1.463zm6.828 4.21v-6.155h2.194q.714 0 1.187.246.475.247.709.682.234.434.234 1.001 0 .566-.237.995a1.6 1.6 0 0 1-.71.664q-.471.237-1.187.237h-1.66v-.799h1.577q.45 0 .734-.13a.86.86 0 0 0 .417-.375q.133-.246.133-.592 0-.348-.136-.604a.87.87 0 0 0-.417-.39q-.283-.14-.743-.139h-1.166v5.358zm3.038-2.777 1.52 2.776h-1.057l-1.49-2.776zm12.417-.3q0 .984-.36 1.694-.36.707-.99 1.088-.624.38-1.42.379a2.7 2.7 0 0 1-1.428-.379 2.65 2.65 0 0 1-.986-1.09q-.36-.71-.36-1.693 0-.985.36-1.692a2.63 2.63 0 0 1 .986-1.088 2.7 2.7 0 0 1 1.427-.381q.797 0 1.422.381.627.379.988 1.088.36.707.36 1.692m-.92 0q0-.752-.243-1.266a1.8 1.8 0 0 0-.661-.781 1.7 1.7 0 0 0-.947-.268q-.532 0-.95.268a1.8 1.8 0 0 0-.66.781q-.241.514-.241 1.265 0 .752.24 1.268.244.514.661.782.418.264.95.264.529 0 .947-.264a1.8 1.8 0 0 0 .66-.782q.244-.516.244-1.268m10.69-3.078h.931v4.048q0 .645-.303 1.145-.303.495-.854.781-.55.283-1.289.283-.736 0-1.286-.283a2.1 2.1 0 0 1-.853-.781 2.16 2.16 0 0 1-.304-1.145v-4.048h.929v3.973q0 .418.183.742.186.325.526.51.34.184.805.184.469 0 .809-.183.342-.186.523-.511.183-.324.183-.742zm6.936 6.154v-6.154h2.194q.718 0 1.19.261.472.262.706.716.234.45.234 1.015 0 .569-.237 1.022-.234.45-.71.715-.471.262-1.186.262h-1.509v-.788h1.425q.454 0 .736-.156a1 1 0 0 0 .415-.433q.132-.273.132-.622 0-.348-.132-.619a.95.95 0 0 0-.418-.424q-.282-.153-.745-.153H64.05v5.358z"/></g><path stroke="#fff" stroke-width="4" d="M2 2h81.767v81.767H2z"/><defs><clipPath id="a"><path fill="#fff" d="M4 4h77.767v77.767H4z"/></clipPath></defs></svg>
